Dominus_Dark_Funeral/scalable/actions/insert-image.svg

<svg xmlns="http://www.w3.org/2000/svg" width="24" height="24"><path fill="#e6e6e6" d="M19.176 1.39l-14.35.005a.552.552 0 0 0-.553.552l-.002 14.348c0 .306.247.553.553.553l14.35-.006a.55.55 0 0 0 .553-.551l.002-14.35a.55.55 0 0 0-.553-.55zM17.52 3.599l-.002 9.931-11.038.006.002-9.933 11.038-.004zM9.549 17.707a.633.633 0 0 0-.447.188l-.594.591a.63.63 0 0 0 0 .893l2.453 2.453.594.592a.63.63 0 0 0 .892 0l.594-.594 2.451-2.451a.63.63 0 0 0 0-.893l-.594-.591a.63.63 0 0 0-.892 0l-2.004 2.003-2.008-2.003a.629.629 0 0 0-.445-.188z" color="#000" overflow="visible" style="marker:none"/><path fill="#333" d="M6.562 13.402l10.876-.105-4.046-4.046-2.154 2.732-2.417-1.944z" opacity=".6"/></svg>

<?xml version="1.0" encoding="UTF-8" standalone="no"?>
<svg
   xmlns:dc="http://purl.org/dc/elements/1.1/"
   xmlns:cc="http://creativecommons.org/ns#"
   xmlns:rdf="http://www.w3.org/1999/02/22-rdf-syntax-ns#"
   xmlns:svg="http://www.w3.org/2000/svg"
   xmlns="http://www.w3.org/2000/svg"
   xmlns:sodipodi="http://sodipodi.sourceforge.net/DTD/sodipodi-0.dtd"
   xmlns:inkscape="http://www.inkscape.org/namespaces/inkscape"
   width="24"
   height="24"
   version="1.1"
   id="svg6"
   sodipodi:docname="insert-image.svg"
   inkscape:version="0.92.4 (5da689c313, 2019-01-14)">
  <metadata
     id="metadata12">
    <rdf:RDF>
      <cc:Work
         rdf:about="">
        <dc:format>image/svg+xml</dc:format>
        <dc:type
           rdf:resource="http://purl.org/dc/dcmitype/StillImage" />
        <dc:title></dc:title>
      </cc:Work>
    </rdf:RDF>
  </metadata>
  <defs
     id="defs10" />
  <sodipodi:namedview
     pagecolor="#ffffff"
     bordercolor="#666666"
     borderopacity="1"
     objecttolerance="10"
     gridtolerance="10"
     guidetolerance="10"
     inkscape:pageopacity="0"
     inkscape:pageshadow="2"
     inkscape:window-width="1112"
     inkscape:window-height="480"
     id="namedview8"
     showgrid="false"
     inkscape:zoom="9.8333333"
     inkscape:cx="1.0677966"
     inkscape:cy="12"
     inkscape:window-x="0"
     inkscape:window-y="25"
     inkscape:window-maximized="0"
     inkscape:current-layer="svg6" />
  <path
     d="M 19.176,1.39 4.826,1.395 A 0.552,0.552 0 0 0 4.273,1.947 L 4.271,16.295 c 0,0.306 0.247,0.553 0.553,0.553 l 14.35,-0.006 a 0.55,0.55 0 0 0 0.553,-0.551 L 19.729,1.941 A 0.55,0.55 0 0 0 19.176,1.391 Z M 17.52,3.599 17.518,13.53 6.48,13.536 6.482,3.603 Z M 9.549,17.707 a 0.633,0.633 0 0 0 -0.447,0.188 l -0.594,0.591 a 0.63,0.63 0 0 0 0,0.893 l 2.453,2.453 0.594,0.592 a 0.63,0.63 0 0 0 0.892,0 l 0.594,-0.594 2.451,-2.451 a 0.63,0.63 0 0 0 0,-0.893 l -0.594,-0.591 a 0.63,0.63 0 0 0 -0.892,0 L 12.002,19.898 9.994,17.895 A 0.629,0.629 0 0 0 9.549,17.707 Z"
     overflow="visible"
     style="color:#000000;overflow:visible;fill:#e6e6e6;marker:none"
     id="path2"
     inkscape:connector-curvature="0" />
  <path
     d="M 6.562,13.402 17.438,13.297 13.392,9.251 11.238,11.983 8.821,10.039 Z"
     id="path4"
     inkscape:connector-curvature="0"
     style="opacity:0.6;fill:#333333" />
</svg>
